X: 24430
T: Lowthers, The
R: jig
M: 6/8
K: Dmajor
A|:"D"d3/2e/d d3/2e/d|d3/2e/d A2 A|d3/2e/d "G"d3/2c/d|"E"f3/2e/e "A"e2 A|
"D"d3/2e/d d3/2e/d|f3/2e/d a2g|f3/2a/f "A"A3/2B/c|1 "D"e3/2d/d d2A:|2 "D"2e3/2d/d d2g||
|:f>af d2e|f>ed a2f|"A"e>ge c>Ac|e>dc g2 g|
"D"f>af d2e|f>ed a2g|f>af "A"A>Bc|1 "D"e>dd d2g:|2 "D"e>dd d2||

